X: 35
M: 9/8
L: 1/8
K: Gm
[|\
d2=e fed (^c/d/e)^c | d2D ^F2A d3 |]
[|\
d2f fgf fga | b2f fgf fdB |\
c2d cBA BGe | dg^f g3- g3 |]

